X:0435
T:Bold Robin Hood.
M:C
L:1/8
Q:1/4=76 "Slow"
I: :: ::
Z:Jack Campin * www.campin.me.uk * 2009
K:G
    D| E2 c>A      TF2 D>F|G>ed>c     B3  \
    c|Td2 g>e       d2 g>e|d2 c>B     A3
    f| ge`d^c       d>edF |G>BAA      D3::\
    d| d>BG>F       E>FGe |e<AA>G ({G}F2)
G/A/B|(c>de)A      (B>cd)D|G>ABd     Te3  \
    f| g2(d/e/f/d/) g2 dc |B>cdD      G3:|
<end>
<start>
